X:1
T:Island Wind Shadow
C:T. S. Macdonald
M:6/8
L:1/8
K:Em
%%text Not for dancing
EGB AGF | GFE D2 B, | EGB Adf | gfd e2 f | EGB AGF | GFE D2 B, | EGB egb | agf e3 ||
bga fge | dBG F2 G | EGB eBG | FED E2 F | GEB AFd | Beg b2 a | fdB cAF | EGB e3 |]

